X:1
T:[ID 1-73]
T:[ID 1-73]
T:Bezeichnung standardisiert: Menuett Men\"uet
T:Urheber unbekannt Datum in der hier transkribierten schriftlichen Quelle: vermutlich vor 1767
C:Urheber unbekannt
C:Datum in der hier transkribierten schriftlichen Quelle: vermutlich vor 1767
L:1/8
M:3/4
K:D
V:1 treble 
V:1
 F2 GFED | d2 E4 | F2 GFED | d2 E4 | F2 GFED | A2 Bc d2 | ef g2 f2 | edcB A2 | F2 GFED | d2 E4 | %10
 F2 GFED | d2 E4 | F2 GFED | A2 Bc d2 | egfedc | d6 :: f2 gfed | a2 A4 | c2 dcBA | e2 E4 | ABcdef | %21
 e2 d2 c2 | BdcBA^G | A6 | FAdFED | FAdFED | EFGFED | A2 d4 | egfedc | d6 :| %30

